openmetadata-ui/src/main/resources/ui/src/assets/svg/filter-primary.svg

<svg width="16" height="16" viewBox="0 0 16 16" fill="none" xmlns="http://www.w3.org/2000/svg">
<path d="M14.8538 0.500001H1.14606C0.904295 0.499555 0.68265 0.63132 0.572132 0.841164C0.460089 1.05383 0.479754 1.30993 0.622894 1.50416L5.64483 8.40593C5.6465 8.40831 5.64833 8.41054 5.65001 8.41292C5.83248 8.65325 5.93111 8.9443 5.93172 9.24352V14.8705C5.93065 15.0372 5.99772 15.1972 6.11815 15.3154C6.23857 15.4337 6.40229 15.5 6.57302 15.5C6.65991 15.5 6.74574 15.483 6.82592 15.4506L9.64786 14.4008C9.90075 14.3256 10.0686 14.0928 10.0686 13.8125V9.24352C10.069 8.94444 10.1678 8.65325 10.3501 8.41292C10.3518 8.41054 10.3536 8.40831 10.3553 8.40593L15.3771 1.50386C15.5202 1.30978 15.5399 1.05383 15.4279 0.841164C15.3174 0.63132 15.0957 0.499555 14.8538 0.500001V0.500001ZM9.72088 7.96185C9.44039 8.33321 9.28871 8.78219 9.2878 9.24352V13.72L6.7122 14.678V9.24352C6.71129 8.78219 6.55961 8.33321 6.27897 7.96185L1.40353 1.26145H14.5965L9.72088 7.96185Z" fill="#7147E8" stroke="#7147E8" stroke-width="0.3"/>
</svg>

<svg xmlns="http://www.w3.org/2000/svg" width="16" height="16" fill="none"><path fill="#7147E8" stroke="#7147E8" stroke-width=".3" d="M14.854.5H1.146a.646.646 0 0 0-.574.341.624.624 0 0 0 .05.663l5.023 6.902.005.007c.182.24.281.531.282.83v5.627a.618.618 0 0 0 .186.445.649.649 0 0 0 .708.136l2.822-1.05a.597.597 0 0 0 .42-.588v-4.57c.001-.299.1-.59.282-.83l.005-.007 5.022-6.902a.624.624 0 0 0 .05-.663.646.646 0 0 0-.573-.341ZM9.72 7.962c-.28.371-.432.82-.433 1.282v4.476l-2.576.958V9.244c0-.462-.152-.91-.433-1.282l-4.875-6.7h13.193l-4.876 6.7Z"/></svg>
